X: 32702
T: Polka D'Alfred Couillard
R: barndance
M: 4/4
K: Gmajor
|:A2 de fdfa|g2 f2 f4|f2 ef gecd|e2 d2 c2 B2|
A2 de fdfa|g2 f2 f4|f2 ef gecd|e2 d2 d4:|
|:A2 A2 A4|B2 B2 A4|f2 ef gecd|e2 d2 c2 B2|
A2 A2 A4|B2 B2 A4|f2 ef gecd|e2 d2 d4:|
|:D2 GA BGBd|c2 B2 B4|B2 AB cAFG|A2 G2 F2 E2|
D2 GA BGBd|c2 B2 B4|B2 AB cAFG|A2 G2 G4:|
|:D2 D2 D4|E2 E2 D4|B2 AB cAFG|A2 G2 F2 E2|
D2 D2 D4|E2 E2 D4|B2 AB cAFG|A2 G2 G4:|

